X: 959
T: The rambling rake
C: anon.
O: Ireland
B: Francis O'Neill: "The Dance Music of Ireland" (1907) no. 959
R: Long dance, set dance
Z: Transcribed by Frank Nordberg - http://www.musicaviva.com
F: http://www.musicaviva.com/abc/tunes/ireland/oneill-1001/oneill-1001-095
9.abc
m: Tn = (3n/o/n/
M: C
L: 1/8
K: Ador
E2|AGAB cBcd|efec d2(ge)|(3ddd ge (3ddd ge|dcBA G2G2|AGAB cBcd|efec d2(ge
)|dBGB dedB|c2A2A2:|
d2|efec d2g2|efec d2g2|(3ffg af dgg2|(3ffg af d2(ga)|bagf efga|bagf efga|
baga bagf|(Ted)ef g2(fg)|
efec d2g2|efed c2(Bc)|ABcd gfge|dcBA G2G2|AGAB cBcd|efec d2(ge)|dBGB dedB
|c2A2A2|]
W:
W:
W: From Musica Viva - http://www.musicaviva.com
W: the Internet center for free sheet music downloads.


